polaris-icons/icons/new-icons/ThemeEditMajor.svg

<svg width="20" height="20" viewBox="0 0 20 20" fill="none" xmlns="http://www.w3.org/2000/svg">
<path fill-rule="evenodd" clip-rule="evenodd" d="M7.25 3.5C5.17893 3.5 3.5 5.17893 3.5 7.25V12.75C3.5 14.8211 5.17893 16.5 7.25 16.5H8.25C8.66421 16.5 9 16.1642 9 15.75C9 15.3358 8.66421 15 8.25 15H7.25C6.00736 15 5 13.9926 5 12.75V9.5H10.5V12.25C10.5 12.6642 10.8358 13 11.25 13C11.6642 13 12 12.6642 12 12.25V5H12.75C13.9926 5 15 6.00736 15 7.25V8.25C15 8.66421 15.3358 9 15.75 9C16.1642 9 16.5 8.66421 16.5 8.25V7.25C16.5 5.17893 14.8211 3.5 12.75 3.5H7.25ZM10.5 5V8H5V7.25C5 6.00736 6.00736 5 7.25 5H10.5Z" fill="#4A4A4A"/>
<path d="M17.0298 12.3711C17.2251 12.1759 17.2251 11.8593 17.0298 11.664L15.9691 10.6034C15.7739 10.4081 15.4573 10.4081 15.262 10.6034L14.3049 11.5605L16.0727 13.3282L17.0298 12.3711Z" fill="#4A4A4A"/>
<path d="M15.3656 14.0354L13.5978 12.2676L11.1488 14.7166C10.7755 15.0899 10.5649 15.5958 10.5631 16.1238L10.5607 16.8217C10.5602 16.9604 10.6728 17.073 10.8115 17.0725L11.5093 17.0701C12.0374 17.0683 12.5432 16.8577 12.9166 16.4843L15.3656 14.0354Z" fill="#4A4A4A"/>
</svg>

<svg viewBox="0 0 20 20" xmlns="http://www.w3.org/2000/svg"><path fill-rule="evenodd" d="M7.25 3.5a3.75 3.75 0 0 0-3.75 3.75v5.5a3.75 3.75 0 0 0 3.75 3.75h1a.75.75 0 0 0 0-1.5h-1a2.25 2.25 0 0 1-2.25-2.25v-3.25h5.5v2.75a.75.75 0 0 0 1.5 0v-7.25h.75a2.25 2.25 0 0 1 2.25 2.25v1a.75.75 0 0 0 1.5 0v-1a3.75 3.75 0 0 0-3.75-3.75h-5.5Zm3.25 1.5v3h-5.5v-.75a2.25 2.25 0 0 1 2.25-2.25h3.25Z" fill="#5C5F62"/><path d="M17.03 12.371a.5.5 0 0 0 0-.707l-1.06-1.06a.5.5 0 0 0-.708 0l-.957.957 1.768 1.767.957-.957Z" fill="#5C5F62"/><path d="m15.366 14.035-1.768-1.767-2.45 2.449a2 2 0 0 0-.585 1.407l-.002.698a.25.25 0 0 0 .25.25l.698-.002a2 2 0 0 0 1.408-.586l2.449-2.449Z" fill="#5C5F62"/></svg>
